assets/img/braze_icons/compass-02.svg

<svg fill="none" height="24" viewBox="0 0 24 24" width="24" xmlns="http://www.w3.org/2000/svg"><path clip-rule="evenodd" d="m12 1c-6.07513 0-11 4.92487-11 11 0 6.0751 4.92487 11 11 11 6.0751 0 11-4.9249 11-11 0-6.07513-4.9249-11-11-11zm0 2.2002c.4418 0 .8.35817.8.8v1.6c0 .44182-.3582.8-.8.8s-.8-.35818-.8-.8v-1.6c0-.44183.3582-.8.8-.8zm-5.09118 2.57708c-.31242-.31242-.81895-.31242-1.13137 0s-.31242.81895 0 1.13137l1.13137 1.13137c.31242.31242.81895.31242 1.13137 0 .31242-.31241.31242-.81895 0-1.13137zm-2.90882 5.42292c-.44183 0-.8.3582-.8.8s.35817.8.8.8h1.6c.44182 0 .8-.3582.8-.8s-.35818-.8-.8-.8zm14.4 0c-.4418 0-.8.3582-.8.8s.3582.8.8.8h1.6c.4418 0 .8-.3582.8-.8s-.3582-.8-.8-.8zm-2.4402 4.7597c.3124-.3124.8189-.3124 1.1314 0l1.1313 1.1314c.3125.3124.3125.8189 0 1.1313-.3124.3125-.8189.3125-1.1313 0l-1.1314-1.1313c-.3124-.3124-.3124-.819 0-1.1314zm2.2627-9.05125c.3125-.31242.3125-.81895 0-1.13137-.3124-.31242-.8189-.31242-1.1313 0l-1.1314 1.13137c-.3124.31242-.3124.81896 0 1.13137.3124.31242.8189.31242 1.1314 0zm-5.4225 11.49145c0-.4418-.3582-.8-.8-.8s-.8.3582-.8.8v1.6c0 .4418.3582.8.8.8s.8-.3582.8-.8zm-4.75981-1.3088c.31242-.3124.31242-.819 0-1.1314s-.81895-.3124-1.13137 0l-1.13137 1.1314c-.31242.3124-.31242.8189 0 1.1313.31242.3125.81895.3125 1.13137 0zm3.25271-7.79841c.3905-.39052 1.0237-.39052 1.4142 0l2 2.00001c.3905.3905.3905 1.0237 0 1.4142l-2 2c-.3905.3905-1.0237.3905-1.4142 0l-2.00001-2c-.39052-.3905-.39052-1.0237 0-1.4142z" fill="#801ed7" fill-rule="evenodd"/></svg>

<svg width="24" height="24" viewBox="0 0 24 24" fill="none" xmlns="http://www.w3.org/2000/svg">
<path fill-rule="evenodd" clip-rule="evenodd" d="M12 1C5.92487 1 1 5.92487 1 12C1 18.0751 5.92487 23 12 23C18.0751 23 23 18.0751 23 12C23 5.92487 18.0751 1 12 1ZM12 3.2002C12.4418 3.2002 12.8 3.55837 12.8 4.0002V5.6002C12.8 6.04202 12.4418 6.4002 12 6.4002C11.5582 6.4002 11.2 6.04202 11.2 5.6002V4.0002C11.2 3.55837 11.5582 3.2002 12 3.2002ZM6.90882 5.77728C6.5964 5.46486 6.08987 5.46486 5.77745 5.77728C5.46503 6.0897 5.46503 6.59623 5.77745 6.90865L6.90882 8.04002C7.22124 8.35244 7.72777 8.35244 8.04019 8.04002C8.35261 7.72761 8.35261 7.22107 8.04019 6.90865L6.90882 5.77728ZM4 11.2002C3.55817 11.2002 3.2 11.5584 3.2 12.0002C3.2 12.442 3.55817 12.8002 4 12.8002H5.6C6.04182 12.8002 6.4 12.442 6.4 12.0002C6.4 11.5584 6.04182 11.2002 5.6 11.2002H4ZM18.4 11.2002C17.9582 11.2002 17.6 11.5584 17.6 12.0002C17.6 12.442 17.9582 12.8002 18.4 12.8002H20C20.4418 12.8002 20.8 12.442 20.8 12.0002C20.8 11.5584 20.4418 11.2002 20 11.2002H18.4ZM15.9598 15.9599C16.2722 15.6475 16.7787 15.6475 17.0912 15.9599L18.2225 17.0913C18.535 17.4037 18.535 17.9102 18.2225 18.2226C17.9101 18.5351 17.4036 18.5351 17.0912 18.2226L15.9598 17.0913C15.6474 16.7789 15.6474 16.2723 15.9598 15.9599ZM18.2225 6.90865C18.535 6.59623 18.535 6.0897 18.2225 5.77728C17.9101 5.46486 17.4036 5.46486 17.0912 5.77728L15.9598 6.90865C15.6474 7.22107 15.6474 7.72761 15.9598 8.04002C16.2722 8.35244 16.7787 8.35244 17.0912 8.04002L18.2225 6.90865ZM12.8 18.4001C12.8 17.9583 12.4418 17.6001 12 17.6001C11.5582 17.6001 11.2 17.9583 11.2 18.4001V20.0001C11.2 20.4419 11.5582 20.8001 12 20.8001C12.4418 20.8001 12.8 20.4419 12.8 20.0001V18.4001ZM8.04019 17.0913C8.35261 16.7789 8.35261 16.2723 8.04019 15.9599C7.72777 15.6475 7.22124 15.6475 6.90882 15.9599L5.77745 17.0913C5.46503 17.4037 5.46503 17.9102 5.77745 18.2226C6.08987 18.5351 6.5964 18.5351 6.90882 18.2226L8.04019 17.0913ZM11.2929 9.29289C11.6834 8.90237 12.3166 8.90237 12.7071 9.29289L14.7071 11.2929C15.0976 11.6834 15.0976 12.3166 14.7071 12.7071L12.7071 14.7071C12.3166 15.0976 11.6834 15.0976 11.2929 14.7071L9.29289 12.7071C8.90237 12.3166 8.90237 11.6834 9.29289 11.2929L11.2929 9.29289Z" fill="#801ED7"/>
</svg>
